resources/svg/china-railway-line.svg

<svg fill="currentColor" viewBox="0 0 24 24" xmlns="http://www.w3.org/2000/svg"><path d="M11 20V13H9V10H15V13H13V20H18V22H6V20H11ZM10 2.22302V1H14V2.22302C18.008 3.13247 21 6.71683 21 11C21 14.1235 19.4088 16.8754 16.9928 18.4892L15.8833 16.825C17.7624 15.5697 19 13.4294 19 11C19 7.13401 15.866 4 12 4C8.13401 4 5 7.13401 5 11C5 13.4294 6.23758 15.5697 8.11669 16.825L7.00717 18.4892C4.59118 16.8754 3 14.1235 3 11C3 6.71683 5.99202 3.13247 10 2.22302Z"/></svg>

<svg xmlns="http://www.w3.org/2000/svg" viewBox="0 0 24 24" fill="currentColor">
    <g>
        <path fill="none" d="M0 0h24v24H0z"/>
        <path d="M11 20v-7H9v-3h6v3h-2v7h5v2H6v-2h5zM10 2.223V1h4v1.223a9.003 9.003 0 0 1 2.993 16.266l-1.11-1.664a7 7 0 1 0-7.767 0l-1.109 1.664A9.003 9.003 0 0 1 10 2.223z"/>
    </g>
</svg>
